X:1
T:The Knight and the Shepherd's Daughter
B:Cecil Sharp's Collection of English Folk Songs, ed. Maud Karpeles, 1974.
S:Alfred Emery, Othery, Somerset, 1908.
L:1/8
Q:1/4=100
M:4/4
K:C
D2|G3 B A2 ^F2|(G^F)(ED) D2
w:It's of a farm-er's daugh-ter_ dear,
(AB)|c2 c2 d2 (cB)|A6
w:Kept_ sheep all on the_ plain.
(BA)|G2 G2 A2 A2|d2 (cB)A2
w:Who_ should ride by but Knight Wil-*liam
(BA)|G2 G2 (cB) (AG)|
w:And_ he got drunk_ by_
M:2/4
F2 E2|
w:wine._
M:4/4
D3 E F3 A|FFEE D2|]
w:Right fol lol the did-dle ol the dee.
